svg/UnitedNations-Flags/flag-vc.svg

<?xml version="1.0" encoding="UTF-8" standalone="no"?>
<!-- Created with Inkscape (http://www.inkscape.org/) --><svg:svg height="256" id="svg1" inkscape:output_extension="org.inkscape.output.svg.inkscape" inkscape:version="0.46" sodipodi:docname="Flag_of_Saint_Vincent_and_the_Grenadines.svg" sodipodi:version="0.32" version="1.0" width="256" x="0.0000000" xmlns:cc="http://creativecommons.org/ns#" xmlns:dc="http://purl.org/dc/elements/1.1/" xmlns:inkscape="http://www.inkscape.org/namespaces/inkscape" xmlns:rdf="http://www.w3.org/1999/02/22-rdf-syntax-ns#" xmlns:sodipodi="http://sodipodi.sourceforge.net/DTD/sodipodi-0.dtd" xmlns:svg="http://www.w3.org/2000/svg" y="0.0000000">
  <metadata>
    <rdf:RDF xmlns:cc="http://web.resource.org/cc/" xmlns:dc="http://purl.org/dc/elements/1.1/" xmlns:rdf="http://www.w3.org/1999/02/22-rdf-syntax-ns#">
      <cc:Work rdf:about="">
        <dc:title></dc:title>
        <dc:description></dc:description>
        <dc:subject>
          <rdf:Bag>
            <rdf:li>unsorted</rdf:li>
          </rdf:Bag>
        </dc:subject>
        <dc:publisher>
          <cc:Agent rdf:about="http://www.openclipart.org/">
            <dc:title>Open Clip Art Library, Source: Wikimedia Commons, Source: Wikimedia Commons, Source: Wikimedia Commons, Source: Wikimedia Commons</dc:title>
          </cc:Agent>
        </dc:publisher>
        <dc:creator>
          <cc:Agent>
            <dc:title></dc:title>
          </cc:Agent>
        </dc:creator>
        <dc:rights>
          <cc:Agent>
            <dc:title></dc:title>
          </cc:Agent>
        </dc:rights>
        <dc:date></dc:date>
        <dc:format>image/svg+xml</dc:format>
        <dc:type rdf:resource="http://purl.org/dc/dcmitype/StillImage"/>
        <cc:license rdf:resource="http://en.wikipedia.org/wiki/Public_domain"/>
        <dc:language>en</dc:language>
      </cc:Work>
    </rdf:RDF>
  </metadata>
  <sodipodi:namedview bordercolor="#666666" borderopacity="1.0" gridtolerance="10.0" guidetolerance="10.0" id="base" inkscape:current-layer="svg1" inkscape:cx="225" inkscape:cy="150" inkscape:pageopacity="0.0" inkscape:pageshadow="2" inkscape:window-height="727" inkscape:window-width="949" inkscape:window-x="-33" inkscape:window-y="80" inkscape:zoom="2.4833333" objecttolerance="10.0" pagecolor="#ffffff" showgrid="false"/>
  <svg:defs id="defs3">
    <inkscape:perspective id="perspective2445" inkscape:persp3d-origin="225 : 100 : 1" inkscape:vp_x="0 : 150 : 1" inkscape:vp_y="0 : 1000 : 0" inkscape:vp_z="450 : 150 : 1" sodipodi:type="inkscape:persp3d"/>
  </svg:defs>
  <svg:rect height="170.66667" id="rect908" style="fill:#0072c6;fill-opacity:1;fill-rule:evenodd;stroke:none;stroke-width:1pt;stroke-linecap:butt;stroke-linejoin:miter;stroke-opacity:1" width="256" x="0" y="42.333328"/>
  <svg:rect height="170.66667" id="rect2152" style="fill:#fcd116;fill-opacity:1;fill-rule:evenodd;stroke:none;stroke-width:1pt;stroke-linecap:butt;stroke-linejoin:miter;stroke-opacity:1" width="192" x="64" y="42.333328"/>
  <svg:rect height="170.66667" id="rect2774" style="fill:#009e60;fill-opacity:1;fill-rule:evenodd;stroke:none;stroke-width:1pt;stroke-linecap:butt;stroke-linejoin:miter;stroke-opacity:1" width="64" x="192" y="42.333328"/>
  <svg:path d="M 113.77778,163.22221 L 128,191.66665 L 142.22222,163.22221 L 128,134.77776 L 113.77778,163.22221 z" id="path3396" style="fill:#009e60;fill-opacity:1;fill-rule:evenodd;stroke:none;stroke-width:1pt;stroke-linecap:butt;stroke-linejoin:miter;stroke-opacity:1"/>
  <svg:path d="M 131.55556,127.66665 L 145.77778,156.1111 L 160,127.66665 L 145.77778,99.222206 L 131.55556,127.66665 z" id="path4018" style="fill:#009e60;fill-opacity:1;fill-rule:evenodd;stroke:none;stroke-width:1pt;stroke-linecap:butt;stroke-linejoin:miter;stroke-opacity:1"/>
  <svg:path d="M 96,127.66665 L 110.22222,156.1111 L 124.44444,127.66665 L 110.22222,99.222206 L 96,127.66665 z" id="path4019" style="fill:#009e60;fill-opacity:1;fill-rule:evenodd;stroke:none;stroke-width:1pt;stroke-linecap:butt;stroke-linejoin:miter;stroke-opacity:1"/>
</svg:svg>

<svg viewBox="0 0 256 256"><g fill-rule="evenodd"><path fill="#0072c6" d="m0 42.33h256v170.67h-256z"/><path fill="#fcd116" d="m64 42.33h192v170.67h-192z"/><g fill="#009e60"><path d="m192 42.33h64v170.67h-64z"/><path d="m113.78 163.22l14.222 28.444 14.222-28.444-14.222-28.444-14.222 28.444"/><path d="m131.56 127.67l14.222 28.444 14.222-28.444-14.222-28.444-14.222 28.444"/><path d="m96 127.67l14.222 28.444 14.222-28.444-14.222-28.444-14.222 28.444"/></g></g></svg>
